X: 14
T:Gragalmacree Retreat. JMP.014
T:Gramachree,aka. JMP.014
M:3/4
L:1/8
Q:90
S:John Miller MS. Perth, 1799.(for the fife)
R:Air
O:Scotland
A:Perth
N:1 - shown as dotted
N:2 -  bar unclear
N:3 -  bar line missin
H:1799
Z:vmp.C. Graebe
K:E minor
Bc/d/ |"1"e2e>fg>f | "2"ed d2 GA/B/ | c>Bc>de>d | B4 Bc/d/ |\
e2e>fg>f |!
 ed B2 G/B/d/B/ | AG E2 EF | E4 :|\
|E>F | G2 GABG | AG G2 GA/B/  |!
 c>Bc>de>d | B4 Bc/d/ |\
 e2 e>fg>f | e>d d2 G/B/d/B/  | A>G E2 EF | "3" E4 |]
